assets/images/btn_google_play_en.svg

<svg width="158" height="50" viewBox="0 0 158 50" fill="none" xmlns="http://www.w3.org/2000/svg">
<path fill-rule="evenodd" clip-rule="evenodd" d="M152.148 50H5.85185C2.57481 50 0 47.25 0 43.75V6.25C0 2.75 2.57481 0 5.85185 0H152.148C155.425 0 158 2.75 158 6.25V43.75C158 47.25 155.425 50 152.148 50Z" fill="#004177"/>
<path d="M55.3008 13.668V13.1328H53.0078V13.75H54.5977V13.8516C54.5977 14.7969 53.9102 15.4453 52.9102 15.4453C51.7617 15.4453 51.0508 14.5664 51.0508 13.1484C51.0508 11.7539 51.75 10.918 52.9102 10.918C53.7031 10.918 54.293 11.3516 54.5273 12.1133H55.2656C55.0547 10.9922 54.1289 10.2695 52.9102 10.2695C51.332 10.2695 50.3281 11.3906 50.3281 13.1523C50.3281 14.9453 51.3359 16.0938 52.9102 16.0938C54.4141 16.0938 55.3008 15.1914 55.3008 13.668ZM60.1953 15.3672H57.4062V13.4297H60.0508V12.8047H57.4062V10.9961H60.1953V10.3633H56.7031V16H60.1953V15.3672ZM63.7539 16V10.9961H65.5312V10.3633H61.2734V10.9961H63.0508V16H63.7539ZM69.6172 16V10.3633H68.9141V16H69.6172ZM73.3398 16V10.9961H75.1172V10.3633H70.8594V10.9961H72.6367V16H73.3398ZM80.8789 10.2695C79.2812 10.2695 78.2812 11.3945 78.2812 13.1836C78.2812 14.9727 79.2812 16.0938 80.8789 16.0938C82.4766 16.0938 83.4766 14.9727 83.4766 13.1836C83.4766 11.3945 82.4766 10.2695 80.8789 10.2695ZM80.8789 10.918C82.0312 10.918 82.7539 11.793 82.7539 13.1836C82.7539 14.5703 82.0312 15.4453 80.8789 15.4453C79.7266 15.4453 79.0039 14.5703 79.0039 13.1836C79.0039 11.793 79.7266 10.918 80.8789 10.918ZM85.5469 16V11.5898H85.582L88.668 16H89.3516V10.3633H88.6562V14.7891H88.6211L85.5352 10.3633H84.8516V16H85.5469Z" fill="white"/>
<path fill-rule="evenodd" clip-rule="evenodd" d="M77.3602 24.7999C74.9602 24.7999 73.0602 26.5999 73.0602 29.0999C73.0602 31.4999 74.9602 33.3999 77.3602 33.3999C79.7602 33.3999 81.6602 31.5999 81.6602 29.0999C81.6602 26.4999 79.7602 24.7999 77.3602 24.7999ZM77.3602 31.6C76.0602 31.6 74.9602 30.5 74.9602 29C74.9602 27.5 76.0602 26.4 77.3602 26.4C78.6602 26.4 79.7602 27.4 79.7602 29C79.7602 30.5 78.6602 31.6 77.3602 31.6ZM68.0602 24.7999C65.6602 24.7999 63.7602 26.5999 63.7602 29.0999C63.7602 31.4999 65.6602 33.3999 68.0602 33.3999C70.4602 33.3999 72.3602 31.5999 72.3602 29.0999C72.3602 26.4999 70.4602 24.7999 68.0602 24.7999ZM68.0601 31.6C66.7601 31.6 65.6601 30.5 65.6601 29C65.6601 27.5 66.7601 26.4 68.0601 26.4C69.3601 26.4 70.4601 27.4 70.4601 29C70.4601 30.5 69.3601 31.6 68.0601 31.6ZM56.9602 26.0999V27.8999H61.2602C61.1602 28.8999 60.7602 29.6999 60.2602 30.1999C59.6602 30.7999 58.6602 31.4999 56.9602 31.4999C54.2602 31.4999 52.2602 29.3999 52.2602 26.6999C52.2602 23.9999 54.3602 21.8999 56.9602 21.8999C58.3602 21.8999 59.4602 22.4999 60.2602 23.1999L61.5602 21.8999C60.4602 20.8999 59.0602 20.0999 57.0602 20.0999C53.4602 20.0999 50.3602 23.0999 50.3602 26.6999C50.3602 30.2999 53.4602 33.2999 57.0602 33.2999C59.0602 33.2999 60.4602 32.6999 61.6602 31.3999C62.8602 30.1999 63.2602 28.4999 63.2602 27.1999C63.2602 26.7999 63.2602 26.3999 63.1602 26.0999H56.9602ZM102.36 27.4999C101.96 26.4999 100.96 24.7999 98.7601 24.7999C96.5601 24.7999 94.7601 26.4999 94.7601 29.0999C94.7601 31.4999 96.5601 33.3999 98.9601 33.3999C100.86 33.3999 102.06 32.1999 102.46 31.4999L101.06 30.4999C100.56 31.1999 99.9601 31.6999 98.9601 31.6999C97.9601 31.6999 97.3601 31.2999 96.8601 30.3999L102.56 27.9999L102.36 27.4999ZM96.5602 28.9C96.5602 27.3 97.8602 26.4 98.7602 26.4C99.4602 26.4 100.16 26.8 100.36 27.3L96.5602 28.9ZM91.8601 33H93.7602V20.5H91.8601V33ZM88.8602 25.7C88.3602 25.2 87.5602 24.7 86.5602 24.7C84.4602 24.7 82.4602 26.6 82.4602 29C82.4602 31.4 84.3602 33.2 86.5602 33.2C87.5602 33.2 88.3602 32.7 88.7602 32.2H88.8602V32.8C88.8602 34.4 87.9602 35.3 86.5602 35.3C85.4602 35.3 84.6602 34.5 84.4602 33.8L82.8602 34.5C83.3602 35.6 84.5602 37 86.6602 37C88.8602 37 90.6602 35.7 90.6602 32.6V25H88.8602V25.7ZM86.6602 31.6C85.3602 31.6 84.2602 30.5 84.2602 29C84.2602 27.5 85.3602 26.4 86.6602 26.4C87.9602 26.4 88.9602 27.5 88.9602 29C88.9602 30.5 87.9602 31.6 86.6602 31.6ZM111.06 20.5H106.56V33H108.46V28.3H111.06C113.16 28.3 115.16 26.8 115.16 24.4C115.16 22 113.16 20.5 111.06 20.5ZM111.16 26.5H108.46V22.2H111.16C112.56 22.2 113.36 23.4 113.36 24.3C113.26 25.4 112.46 26.5 111.16 26.5ZM122.66 24.7C121.26 24.7 119.86 25.3 119.36 26.6L121.06 27.3C121.46 26.6 122.06 26.4 122.76 26.4C123.76 26.4 124.66 27 124.76 28V28.1C124.46 27.9 123.66 27.6 122.86 27.6C121.06 27.6 119.26 28.6 119.26 30.4C119.26 32.1 120.76 33.2 122.36 33.2C123.66 33.2 124.26 32.6 124.76 32H124.86V33H126.66V28.2C126.46 26 124.76 24.7 122.66 24.7ZM122.46 31.6C121.86 31.6 120.96 31.3 120.96 30.5C120.96 29.5 122.06 29.2 122.96 29.2C123.76 29.2 124.16 29.4 124.66 29.6C124.46 30.8 123.46 31.6 122.46 31.6ZM132.96 25L130.86 30.4H130.76L128.56 25H126.56L129.86 32.6L127.96 36.8H129.86L134.96 25H132.96ZM116.16 33H118.06V20.5H116.16V33Z" fill="white"/>
<path fill-rule="evenodd" clip-rule="evenodd" d="M19.4004 11C19.1004 11.3 19.0004 11.8 19.0004 12.4V34.5C19.0004 35.1 19.2004 35.6 19.5004 35.9L19.6004 36L32.0004 23.6V23.4L19.4004 11Z" fill="white"/>
<path fill-rule="evenodd" clip-rule="evenodd" d="M37.1004 27.5L33.0004 23.4V23.1L37.1004 19L37.2004 19.1L42.1004 21.9C43.5004 22.7 43.5004 24 42.1004 24.8L37.1004 27.5Z" fill="white"/>
<path fill-rule="evenodd" clip-rule="evenodd" d="M36.7004 28.2L32.5004 24L20.0004 36.5C20.5004 37 21.2004 37 22.1004 36.6L36.7004 28.2Z" fill="white"/>
<path fill-rule="evenodd" clip-rule="evenodd" d="M36.7004 18.6287L22.1004 10.3287C21.2004 9.82873 20.5004 9.92873 20.0004 10.4287L32.5004 22.8287L36.7004 18.6287Z" fill="white"/>
<path fill-rule="evenodd" clip-rule="evenodd" d="M19.6601 35.3C19.3601 35 19.2601 34.5 19.2601 33.9V34C19.2601 34.6 19.4601 35.1 19.7601 35.4V35.3H19.6601Z" fill="black"/>
</svg>

<svg width="158" height="50" fill="none" xmlns="http://www.w3.org/2000/svg"><path fill-rule="evenodd" clip-rule="evenodd" d="M152.148 50H5.852C2.575 50 0 47.25 0 43.75V6.25C0 2.75 2.575 0 5.852 0h146.296C155.425 0 158 2.75 158 6.25v37.5c0 3.5-2.575 6.25-5.852 6.25z" fill="#004177"/><path d="M55.3 13.668v-.535h-2.292v.617h1.59v.102c0 .945-.688 1.593-1.688 1.593-1.148 0-1.86-.879-1.86-2.297 0-1.394.7-2.23 1.86-2.23.793 0 1.383.434 1.617 1.195h.739c-.211-1.12-1.137-1.843-2.356-1.843-1.578 0-2.582 1.12-2.582 2.882 0 1.793 1.008 2.942 2.582 2.942 1.504 0 2.39-.903 2.39-2.426zm4.895 1.7h-2.789V13.43h2.645v-.625h-2.645v-1.809h2.79v-.633h-3.493V16h3.492v-.633zm3.559.632v-5.004h1.777v-.633h-4.258v.633h1.778V16h.703zm5.863 0v-5.637h-.703V16h.703zm3.723 0v-5.004h1.777v-.633H70.86v.633h1.778V16h.703zm7.539-5.73c-1.598 0-2.598 1.125-2.598 2.914 0 1.789 1 2.91 2.598 2.91 1.598 0 2.598-1.121 2.598-2.91 0-1.79-1-2.914-2.598-2.914zm0 .648c1.152 0 1.875.875 1.875 2.266 0 1.386-.723 2.261-1.875 2.261-1.152 0-1.875-.875-1.875-2.261 0-1.391.723-2.266 1.875-2.266zM85.547 16v-4.41h.035L88.668 16h.684v-5.637h-.696v4.426h-.035l-3.086-4.426h-.683V16h.695z" fill="#fff"/><path fill-rule="evenodd" clip-rule="evenodd" d="M77.36 24.8c-2.4 0-4.3 1.8-4.3 4.3 0 2.4 1.9 4.3 4.3 4.3s4.3-1.8 4.3-4.3c0-2.6-1.9-4.3-4.3-4.3zm0 6.8c-1.3 0-2.4-1.1-2.4-2.6s1.1-2.6 2.4-2.6c1.3 0 2.4 1 2.4 2.6 0 1.5-1.1 2.6-2.4 2.6zm-9.3-6.8c-2.4 0-4.3 1.8-4.3 4.3 0 2.4 1.9 4.3 4.3 4.3s4.3-1.8 4.3-4.3c0-2.6-1.9-4.3-4.3-4.3zm0 6.8c-1.3 0-2.4-1.1-2.4-2.6s1.1-2.6 2.4-2.6c1.3 0 2.4 1 2.4 2.6 0 1.5-1.1 2.6-2.4 2.6zm-11.1-5.5v1.8h4.3c-.1 1-.5 1.8-1 2.3-.6.6-1.6 1.3-3.3 1.3-2.7 0-4.7-2.1-4.7-4.8 0-2.7 2.1-4.8 4.7-4.8 1.4 0 2.5.6 3.3 1.3l1.3-1.3c-1.1-1-2.5-1.8-4.5-1.8-3.6 0-6.7 3-6.7 6.6 0 3.6 3.1 6.6 6.7 6.6 2 0 3.4-.6 4.6-1.9 1.2-1.2 1.6-2.9 1.6-4.2 0-.4 0-.8-.1-1.1h-6.2zm45.4 1.4c-.4-1-1.4-2.7-3.6-2.7s-4 1.7-4 4.3c0 2.4 1.8 4.3 4.2 4.3 1.9 0 3.1-1.2 3.5-1.9l-1.4-1c-.5.7-1.1 1.2-2.1 1.2s-1.6-.4-2.1-1.3l5.7-2.4-.2-.5zm-5.8 1.4c0-1.6 1.3-2.5 2.2-2.5.7 0 1.4.4 1.6.9l-3.8 1.6zm-4.7 4.1h1.9V20.5h-1.9V33zm-3-7.3c-.5-.5-1.3-1-2.3-1-2.1 0-4.1 1.9-4.1 4.3s1.9 4.2 4.1 4.2c1 0 1.8-.5 2.2-1h.1v.6c0 1.6-.9 2.5-2.3 2.5-1.1 0-1.9-.8-2.1-1.5l-1.6.7c.5 1.1 1.7 2.5 3.8 2.5 2.2 0 4-1.3 4-4.4V25h-1.8v.7zm-2.2 5.9c-1.3 0-2.4-1.1-2.4-2.6s1.1-2.6 2.4-2.6c1.3 0 2.3 1.1 2.3 2.6s-1 2.6-2.3 2.6zm24.4-11.1h-4.5V33h1.9v-4.7h2.6c2.1 0 4.1-1.5 4.1-3.9s-2-3.9-4.1-3.9zm.1 6h-2.7v-4.3h2.7c1.4 0 2.2 1.2 2.2 2.1-.1 1.1-.9 2.2-2.2 2.2zm11.5-1.8c-1.4 0-2.8.6-3.3 1.9l1.7.7c.4-.7 1-.9 1.7-.9 1 0 1.9.6 2 1.6v.1c-.3-.2-1.1-.5-1.9-.5-1.8 0-3.6 1-3.6 2.8 0 1.7 1.5 2.8 3.1 2.8 1.3 0 1.9-.6 2.4-1.2h.1v1h1.8v-4.8c-.2-2.2-1.9-3.5-4-3.5zm-.2 6.9c-.6 0-1.5-.3-1.5-1.1 0-1 1.1-1.3 2-1.3.8 0 1.2.2 1.7.4-.2 1.2-1.2 2-2.2 2zm10.5-6.6l-2.1 5.4h-.1l-2.2-5.4h-2l3.3 7.6-1.9 4.2h1.9l5.1-11.8h-2zm-16.8 8h1.9V20.5h-1.9V33zM19.4 11c-.3.3-.4.8-.4 1.4v22.1c0 .6.2 1.1.5 1.4l.1.1L32 23.6v-.2L19.4 11zm17.7 16.5L33 23.4v-.3l4.1-4.1.1.1 4.9 2.8c1.4.8 1.4 2.1 0 2.9l-5 2.7zm-.4.7L32.5 24 20 36.5c.5.5 1.2.5 2.1.1l14.6-8.4zm0-9.571l-14.6-8.3c-.9-.5-1.6-.4-2.1.1l12.5 12.4 4.2-4.2z" fill="#fff"/><path fill-rule="evenodd" clip-rule="evenodd" d="M19.66 35.3c-.3-.3-.4-.8-.4-1.4v.1c0 .6.2 1.1.5 1.4v-.1h-.1z" fill="#000"/></svg>
